!!!!SEGMENT:Hayame.krn
!!!OTL: 早目
!!!OPR:Eiga Banso Kyokusyu,jidai-geki,kouhen
!!!YOY:1928
!!!ONB:Kakuto,Hayakago
**kern
*clefG2
*k[]
*C:
*M2/4
=1
8r
8ffL
8ee
8ccJ
=2
8bL
8a
8f
8aJ
=3
8bL
8aJ
8bL
8ddJ
=4
8eeL
8eeJ
8eeL
8ddJ
=5
8.eL
16ffJk
8ffL
8ffJ
=6
8ffL
8ff
8ff
8eeJ
=7
8r
8eeL
8ff#X
8eeJ
=8
8bL
8ccJ
8ccL
8bJ
=9
8eL
8ee
8ff#X
8eeJ
=10
8eL
8cc
8cc
8ccJ
=11
8bL
8a
8b
8aaJ
=12
16bbLL
16bbJ
8bbJ
16aaLL
16aaJ
8aaJ
=13
16ff#XLL
16ff#J
8ff#J
8eeL
8ccJ
=14
8ccL
8eeJ
16eeLL
16ff#X
16ff#
16eeJJ
=15
8ccL
8bJ
8r
16ddLL
16ddJJ
=16
8ddL
8dd
8dd
8ddJ
=17
8ddL
8dd
8cc#X
8gJ
=18
8f#XL
8e
8f#
8eJ
=19:|
*M2/8
8c
8B
=20
8cL
8BJ
4r
==
*-
!!!ENC: Yukiko Yoden
!!!END: 2023/06/10
